; generated by PrusaSlicer 2.7.1+win64 on 2026-03-06 at 20:53:23 UTC

; 

; external perimeters extrusion width = 0.42mm
; perimeters extrusion width = 0.45mm
; infill extrusion width = 0.45mm
; solid infill extrusion width = 0.45mm
; top infill extrusion width = 0.42mm
; support material extrusion width = 0.37mm
; first layer extrusion width = 0.45mm

M73 P0 R196
M73 Q0 S198
;TYPE:Custom
M115 U3.7.1 ; tell printer latest fw version
G90 ; use absolute coordinates
M83 ; extruder relative mode
M104 S215 ; set extruder temp
M140 S60 ; set bed temp
M190 S60 ; wait for bed temp
M109 S215 ; wait for extruder temp
G28 W ; home all without mesh bed level
G80 ; mesh bed leveling
G1 Y-3.0 F1000.0 ; go outside print area
G92 E0.0
G1 X60.0 E9.0 F1000.0 ; intro line
G1 X100.0 E12.5 F1000.0 ; intro line
M73 Q0 S197
G92 E0.0
M221 S95
G21 ; set units to millimeters
G90 ; use absolute coordinates
M83 ; use relative distances for extrusion
M900 K30 ; Filament gcode
M107
;LAYER_CHANGE
;Z:0.2
;HEIGHT:0.2
;BEFORE_LAYER_CHANGE
G92 E0.0
;0.2


G1 E-.8 F2100
G1 Z.2 F7200
;AFTER_LAYER_CHANGE
;0.2
G1 X58.07 Y35.52
G1 Z.2
G1 E.8 F2100
M204 S1000
;TYPE:Support material
;WIDTH:0.45
G1 F1200
G1 X61.397 Y35.52 E.11261
G1 X61.397 Y39.147 E.12277
G1 X57.625 Y38.144 E.13211
G1 X57.253 Y38.431 E.0159
G1 X57.253 Y171.591 E4.50731
G1 X57.532 Y171.87 E.01336
G1 X61.575 Y171.87 E.13685
G1 X64.185 Y174.48 E.12494
G1 X48.866 Y174.48 E.51853
G1 X48.866 Y32.193 E4.81625
G1 X58.07 Y32.193 E.31154
G1 X58.07 Y35.459 E.11055
;WIPE_START
G1 F5760
G1 X58.07 Y33.149 E-.8
;WIPE_END
G1 Z.8 F7200
G1 X63.034 Y174.297
G1 Z.2
G1 E.8 F2100
G1 F1200
G1 X63.034 Y173.847 E.01523
G1 X62.581 Y173.395 E.02166
G1 X62.581 Y174.114 E.02434
G1 X62.129 Y174.114 E.0153
G1 X62.129 Y172.942 E.03967
G1 X61.677 Y172.49 E.02164
G1 X61.677 Y174.114 E.05497
G1 X61.224 Y174.114 E.01533
G1 X61.224 Y172.237 E.06353
G1 X60.772 Y172.237 E.0153
G1 X60.772 Y174.114 E.06353
G1 X60.32 Y174.114 E.0153
G1 X60.32 Y172.237 E.06353
G1 X59.867 Y172.237 E.01533
G1 X59.867 Y174.114 E.06353
G1 X59.415 Y174.114 E.0153
G1 X59.415 Y172.237 E.06353
G1 X58.963 Y172.237 E.0153
G1 X58.963 Y174.114 E.06353
G1 X58.51 Y174.114 E.01533
G1 X58.51 Y172.237 E.06353
G1 X58.058 Y172.237 E.0153
G1 X58.058 Y174.114 E.06353
G1 X57.606 Y174.114 E.0153
G1 X57.606 Y172.237 E.06353
G1 X57.381 Y172.237 E.00762
G1 X57.153 Y172.009 E.01091
G1 X57.153 Y174.114 E.07125
G1 X56.701 Y174.114 E.0153
G1 X56.701 Y32.559 E4.79147
G1 X57.154 Y32.559 E.01533
G1 X57.154 Y38.045 E.18569
G1 X57.606 Y37.76 E.01809
G1 X57.606 Y32.559 E.17605
G1 X57.703 Y32.559 E.00328
G1 X57.703 Y35.886 E.11261
G1 X58.058 Y35.886 E.01202
G1 X58.058 Y37.88 E.06749
G1 X58.51 Y38.001 E.01584
G1 X58.51 Y35.886 E.07159
G1 X58.963 Y35.886 E.01533
G1 X58.963 Y38.121 E.07565
G1 X59.415 Y38.241 E.01583
G1 X59.415 Y35.886 E.07971
G1 X59.867 Y35.886 E.0153
G1 X59.867 Y38.361 E.08378
G1 X60.32 Y38.481 E.01586
G1 X60.32 Y35.886 E.08784
G1 X60.772 Y35.886 E.0153
G1 X60.772 Y38.791 E.09833
;WIPE_START
G1 F5760
G1 X60.772 Y36.482 E-.8
;WIPE_END
G1 Z.8 F7200
G1 X56.249 Y174.297
G1 Z.2
G1 E.8 F2100
G1 F1200
G1 X56.249 Y32.559 E4.79766
G1 X55.797 Y32.559 E.0153
G1 X55.797 Y174.114 E4.79147
G1 X55.344 Y174.114 E.01533
G1 X55.344 Y32.559 E4.79147
G1 X54.892 Y32.559 E.0153
G1 X54.892 Y174.114 E4.79147
G1 X54.44 Y174.114 E.0153
M73 P0 R195
M73 Q0 S196
G1 X54.44 Y32.559 E4.79147
G1 X53.987 Y32.559 E.01533
G1 X53.987 Y174.114 E4.79147
G1 X53.535 Y174.114 E.0153
G1 X53.535 Y32.559 E4.79147
G1 X53.083 Y32.559 E.0153
G1 X53.083 Y174.114 E4.79147
G1 X52.63 Y174.114 E.01533
G1 X52.63 Y32.559 E4.79147
G1 X52.178 Y32.559 E.0153
G1 X52.178 Y174.114 E4.79147
G1 X51.726 Y174.114 E.0153
G1 X51.726 Y32.559 E4.79147
G1 X51.273 Y32.559 E.01533
G1 X51.273 Y174.114 E4.79147
G1 X50.821 Y174.114 E.0153
M73 P1 R194
M73 Q1 S196
G1 X50.821 Y32.559 E4.79147
G1 X50.369 Y32.559 E.0153
M73 Q1 S195
G1 X50.369 Y174.114 E4.79147
G1 X49.917 Y174.114 E.0153
G1 X49.917 Y32.559 E4.79147
G1 X49.464 Y32.559 E.01533
G1 X49.464 Y174.297 E4.79766
;WIPE_START
G1 F5760
G1 X49.464 Y171.987 E-.8
;WIPE_END
G1 Z.8 F7200
G1 X58.769 Y170.354
G1 Z.2
G1 E.8 F2100
;TYPE:Perimeter
;WIDTH:0.449999
G1 F1200
G1 X58.769 Y40.017 E4.41175
G1 X139.564 Y61.489 E2.82974
G1 X140.346 Y61.658 E.02708
G1 X141.097 Y61.753 E.02562
G1 X141.808 Y61.782 E.02409
G1 X190.212 Y61.782 E1.63842
G1 X190.987 Y61.869 E.0264
G1 X191.664 Y62.104 E.02426
G1 X192.323 Y62.521 E.0264
G1 X192.827 Y63.032 E.02429
G1 X193.208 Y63.645 E.02443
G1 X193.444 Y64.326 E.0244
G1 X193.531 Y65.297 E.033
G1 X193.531 Y167.035 E3.44371
G1 X193.444 Y167.81 E.0264
G1 X193.209 Y168.488 E.02429
G1 X192.793 Y169.146 E.02635
G1 X192.281 Y169.65 E.02432
G1 X191.669 Y170.031 E.0244
G1 X190.987 Y170.268 E.02444
G1 X190.212 Y170.354 E.02639
G1 X58.829 Y170.354 E4.44715
G1 X58.362 Y170.761 F7200
G1 F1200
G1 X58.362 Y39.488 E4.44343
G1 X139.669 Y61.096 E2.84767
M73 P1 R193
M73 Q1 S194
G1 X140.399 Y61.255 E.02529
G1 X141.114 Y61.346 E.0244
G1 X141.808 Y61.375 E.02351
G1 X190.235 Y61.375 E1.63919
G1 X191.077 Y61.469 E.02868
G1 X191.842 Y61.735 E.02742
G1 X192.58 Y62.202 E.02956
G1 X193.149 Y62.779 E.02743
G1 X193.578 Y63.468 E.02747
G1 X193.844 Y64.236 E.02751
G1 X193.938 Y65.297 E.03605
G1 X193.938 Y167.058 E3.44448
G1 X193.844 Y167.901 E.02871
G1 X193.579 Y168.666 E.0274
G1 X193.112 Y169.403 E.02953
G1 X192.535 Y169.972 E.02743
G1 X191.845 Y170.401 E.0275
G1 X191.077 Y170.667 E.02751
G1 X190.235 Y170.761 E.02868
G1 X58.422 Y170.761 E4.46171
G1 X57.955 Y171.168 F7200
;TYPE:External perimeter
G1 F1200
G1 X57.955 Y38.958 E4.47514
G1 X139.774 Y60.703 E2.86561
G1 X140.452 Y60.851 E.02349
G1 X141.132 Y60.939 E.02321
G1 X141.805 Y60.968 E.0228
G1 X190.257 Y60.968 E1.64004
G1 X191.168 Y61.07 E.03103
G1 X192.02 Y61.366 E.03053
G1 X192.837 Y61.883 E.03273
G1 X193.471 Y62.525 E.03054
G1 X193.947 Y63.292 E.03056
G1 X194.243 Y64.146 E.03059
G1 X194.345 Y65.297 E.03911
G1 X194.345 Y167.081 E3.44526
G1 X194.243 Y167.991 E.031
G1 X193.948 Y168.844 E.03055
G1 X193.431 Y169.66 E.0327
G1 X192.788 Y170.294 E.03057
G1 X192.021 Y170.771 E.03057
G1 X191.168 Y171.067 E.03056
G1 X190.257 Y171.168 E.03103
G1 X58.015 Y171.168 E4.47623
;WIPE_START
G1 F5760
G1 X57.955 Y171.168 E-.02078
G1 X57.955 Y168.918 E-.77922
;WIPE_END
G1 Z.8 F7200
G1 X58.891 Y169.408
G1 Z.2
G1 E.8 F2100
;TYPE:Solid infill
;WIDTH:0.450672
G1 F1200
G1 X59.533 Y170.049 E.03076
G1 X60.109 Y170.049 E.01953
G1 X59.074 Y169.014 E.04963
G1 X59.074 Y168.437 E.01956
G1 X60.686 Y170.049 E.07729
G1 X61.262 Y170.049 E.01953
G1 X59.074 Y167.861 E.10491
G1 X59.074 Y167.284 E.01956
G1 X61.839 Y170.049 E.13258
G1 X62.416 Y170.049 E.01956
G1 X59.074 Y166.707 E.16024
G1 X59.074 Y166.131 E.01953
G1 X62.992 Y170.049 E.18786
G1 X63.569 Y170.049 E.01956
G1 X59.074 Y165.554 E.21553
G1 X59.074 Y164.978 E.01953
G1 X64.146 Y170.049 E.24317
G1 X64.722 Y170.049 E.01953
G1 X59.074 Y164.401 E.27081
G1 X59.074 Y163.824 E.01956
G1 X65.299 Y170.049 E.29848
G1 X65.876 Y170.049 E.01956
G1 X59.074 Y163.248 E.32612
G1 X59.074 Y162.671 E.01956
G1 X66.452 Y170.049 E.35376
G1 X67.029 Y170.049 E.01956
G1 X59.074 Y162.094 E.38143
G1 X59.074 Y161.518 E.01953
G1 X67.606 Y170.049 E.40907
G1 X68.182 Y170.049 E.01953
G1 X59.074 Y160.941 E.43672
G1 X59.074 Y160.364 E.01956
G1 X68.759 Y170.049 E.46438
G1 X69.336 Y170.049 E.01956
G1 X59.074 Y159.788 E.49202
G1 X59.074 Y159.211 E.01956
G1 X69.912 Y170.049 E.51967
G1 X70.489 Y170.049 E.01956
M73 P2 R193
G1 X59.074 Y158.634 E.54733
G1 X59.074 Y158.058 E.01953
M73 Q2 S194
G1 X71.065 Y170.049 E.57495
G1 X71.642 Y170.049 E.01956
G1 X59.074 Y157.481 E.60262
G1 X59.074 Y156.904 E.01956
G1 X72.219 Y170.049 E.63028
G1 X72.795 Y170.049 E.01953
M73 P2 R192
G1 X59.074 Y156.328 E.6579
G1 X59.074 Y155.751 E.01956
G1 X73.372 Y170.049 E.68557
G1 X73.949 Y170.049 E.01956
G1 X59.074 Y155.175 E.71321
G1 X59.074 Y154.598 E.01956
M73 Q2 S193
G1 X74.525 Y170.049 E.74085
G1 X75.102 Y170.049 E.01956
G1 X59.074 Y154.021 E.76852
G1 X59.074 Y153.445 E.01953
G1 X75.679 Y170.049 E.79616
G1 X76.255 Y170.049 E.01953
G1 X59.074 Y152.868 E.8238
G1 X59.074 Y152.291 E.01956
G1 X76.832 Y170.049 E.85147
G1 X77.409 Y170.049 E.01956
G1 X59.074 Y151.715 E.87911
G1 X59.074 Y151.138 E.01956
G1 X77.985 Y170.049 E.90675
G1 X78.562 Y170.049 E.01956
G1 X59.074 Y150.561 E.93442
G1 X59.074 Y149.985 E.01953
G1 X79.139 Y170.049 E.96206
G1 X79.715 Y170.049 E.01953
G1 X59.074 Y149.408 E.98971
G1 X59.074 Y148.831 E.01956
G1 X80.292 Y170.049 E1.01737
G1 X80.869 Y170.049 E.01956
G1 X59.074 Y148.255 E1.04501
G1 X59.074 Y147.678 E.01956
G1 X81.445 Y170.049 E1.07266
G1 X82.022 Y170.049 E.01956
G1 X59.074 Y147.101 E1.10032
G1 X59.074 Y146.525 E.01953
G1 X82.598 Y170.049 E1.12794
G1 X83.175 Y170.049 E.01956
G1 X59.074 Y145.948 E1.15561
G1 X59.074 Y145.372 E.01953
G1 X83.752 Y170.049 E1.18325
G1 X84.328 Y170.049 E.01953
G1 X59.074 Y144.795 E1.21089
G1 X59.074 Y144.218 E.01956
G1 X84.905 Y170.049 E1.23856
G1 X85.482 Y170.049 E.01956
G1 X59.074 Y143.642 E1.2662
G1 X59.074 Y143.065 E.01956
G1 X86.058 Y170.049 E1.29384
G1 X86.635 Y170.049 E.01956
G1 X59.074 Y142.488 E1.32151
G1 X59.074 Y141.912 E.01953
G1 X87.212 Y170.049 E1.34915
G1 X87.788 Y170.049 E.01953
G1 X59.074 Y141.335 E1.37679
G1 X59.074 Y140.758 E.01956
G1 X88.365 Y170.049 E1.40446
G1 X88.942 Y170.049 E.01956
G1 X59.074 Y140.182 E1.4321
G1 X59.074 Y139.605 E.01956
G1 X89.518 Y170.049 E1.45974
G1 X90.095 Y170.049 E.01956
G1 X59.074 Y139.028 E1.48741
G1 X59.074 Y138.452 E.01953
G1 X90.672 Y170.049 E1.51505
G1 X91.248 Y170.049 E.01953
G1 X59.074 Y137.875 E1.5427
G1 X59.074 Y137.298 E.01956
G1 X91.825 Y170.049 E1.57036
G1 X92.401 Y170.049 E.01953
G1 X59.074 Y136.722 E1.59798
G1 X59.074 Y136.145 E.01956
G1 X92.978 Y170.049 E1.62565
G1 X93.555 Y170.049 E.01956
M73 P2 R191
G1 X59.074 Y135.568 E1.65331
G1 X59.074 Y134.992 E.01953
M73 Q2 S192
G1 X94.131 Y170.049 E1.68093
G1 X94.708 Y170.049 E.01956
G1 X59.074 Y134.415 E1.7086
G1 X59.074 Y133.839 E.01953
G1 X95.285 Y170.049 E1.73624
G1 X95.861 Y170.049 E.01953
G1 X59.074 Y133.262 E1.76388
G1 X59.074 Y132.685 E.01956
G1 X96.438 Y170.049 E1.79155
G1 X97.015 Y170.049 E.01956
G1 X59.074 Y132.109 E1.81919
G1 X59.074 Y131.532 E.01956
G1 X97.591 Y170.049 E1.84683
G1 X98.168 Y170.049 E.01956
G1 X59.074 Y130.955 E1.8745
G1 X59.074 Y130.379 E.01953
G1 X98.745 Y170.049 E1.90214
G1 X99.321 Y170.049 E.01953
G1 X59.074 Y129.802 E1.92978
G1 X59.074 Y129.225 E.01956
G1 X99.898 Y170.049 E1.95745
G1 X100.475 Y170.049 E.01956
G1 X59.074 Y128.649 E1.98509
G1 X59.074 Y128.072 E.01956
G1 X101.051 Y170.049 E2.01273
G1 X101.628 Y170.049 E.01956
G1 X59.074 Y127.495 E2.0404
G1 X59.074 Y126.919 E.01953
G1 X102.205 Y170.049 E2.06804
G1 X102.781 Y170.049 E.01953
G1 X59.074 Y126.342 E2.09569
G1 X59.074 Y125.765 E.01956
G1 X103.358 Y170.049 E2.12335
G1 X103.934 Y170.049 E.01953
G1 X59.074 Y125.189 E2.15097
G1 X59.074 Y124.612 E.01956
M73 P3 R191
M73 Q3 S192
G1 X104.511 Y170.049 E2.17864
G1 X105.088 Y170.049 E.01956
G1 X59.074 Y124.036 E2.20628
G1 X59.074 Y123.459 E.01956
M73 P3 R190
M73 Q3 S191
G1 X105.664 Y170.049 E2.23392
G1 X106.241 Y170.049 E.01956
G1 X59.074 Y122.882 E2.26159
G1 X59.074 Y122.306 E.01953
G1 X106.818 Y170.049 E2.28923
G1 X107.394 Y170.049 E.01953
G1 X59.074 Y121.729 E2.31687
G1 X59.074 Y121.152 E.01956
G1 X107.971 Y170.049 E2.34454
G1 X108.548 Y170.049 E.01956
G1 X59.074 Y120.576 E2.37218
G1 X59.074 Y119.999 E.01956
G1 X109.124 Y170.049 E2.39982
G1 X109.701 Y170.049 E.01956
G1 X59.074 Y119.422 E2.42749
G1 X59.074 Y118.846 E.01953
G1 X110.278 Y170.049 E2.45513
G1 X110.854 Y170.049 E.01953
G1 X59.074 Y118.269 E2.48277
G1 X59.074 Y117.692 E.01956
G1 X111.431 Y170.049 E2.51044
G1 X112.008 Y170.049 E.01956
G1 X59.074 Y117.116 E2.53808
G1 X59.074 Y116.539 E.01956
G1 X112.584 Y170.049 E2.56572
G1 X113.161 Y170.049 E.01956
G1 X59.074 Y115.962 E2.59339
G1 X59.074 Y115.386 E.01953
G1 X113.737 Y170.049 E2.62101
G1 X114.314 Y170.049 E.01956
G1 X59.074 Y114.809 E2.64868
G1 X59.074 Y114.232 E.01956
M73 P3 R189
G1 X114.891 Y170.049 E2.67634
G1 X115.467 Y170.049 E.01953
M73 Q3 S190
G1 X59.074 Y113.656 E2.70396
G1 X59.074 Y113.079 E.01956
G1 X116.044 Y170.049 E2.73163
G1 X116.621 Y170.049 E.01956
G1 X59.074 Y112.503 E2.75927
G1 X59.074 Y111.926 E.01956
G1 X117.197 Y170.049 E2.78691
G1 X117.774 Y170.049 E.01956
G1 X59.074 Y111.349 E2.81458
G1 X59.074 Y110.773 E.01953
G1 X118.351 Y170.049 E2.84222
G1 X118.927 Y170.049 E.01953
G1 X59.074 Y110.196 E2.86986
G1 X59.074 Y109.619 E.01956
G1 X119.504 Y170.049 E2.89753
G1 X120.081 Y170.049 E.01956
G1 X59.074 Y109.043 E2.92517
G1 X59.074 Y108.466 E.01956
G1 X120.657 Y170.049 E2.95281
G1 X121.234 Y170.049 E.01956
G1 X59.074 Y107.889 E2.98048
G1 X59.074 Y107.313 E.01953
G1 X121.811 Y170.049 E3.00812
G1 X122.387 Y170.049 E.01953
M73 P4 R189
M73 Q4 S190
G1 X59.074 Y106.736 E3.03576
G1 X59.074 Y106.159 E.01956
M73 P4 R188
G1 X122.964 Y170.049 E3.06343
G1 X123.541 Y170.049 E.01956
M73 Q4 S189
G1 X59.074 Y105.583 E3.09107
G1 X59.074 Y105.006 E.01956
G1 X124.117 Y170.049 E3.11871
G1 X124.694 Y170.049 E.01956
G1 X59.074 Y104.429 E3.14638
G1 X59.074 Y103.853 E.01953
G1 X125.27 Y170.049 E3.174
G1 X125.847 Y170.049 E.01956
G1 X59.074 Y103.276 E3.20167
G1 X59.074 Y102.7 E.01953
G1 X126.424 Y170.049 E3.22931
G1 X127 Y170.049 E.01953
G1 X59.074 Y102.123 E3.25695
G1 X59.074 Y101.546 E.01956
G1 X127.577 Y170.049 E3.28462
G1 X128.154 Y170.049 E.01956
G1 X59.074 Y100.97 E3.31226
G1 X59.074 Y100.393 E.01956
G1 X128.73 Y170.049 E3.3399
G1 X129.307 Y170.049 E.01956
G1 X59.074 Y99.816 E3.36757
G1 X59.074 Y99.24 E.01953
G1 X129.884 Y170.049 E3.39521
G1 X130.46 Y170.049 E.01953
M73 P4 R187
M73 Q4 S188
G1 X59.074 Y98.663 E3.42285
G1 X59.074 Y98.086 E.01956
G1 X131.037 Y170.049 E3.45052
G1 X131.614 Y170.049 E.01956
G1 X59.074 Y97.51 E3.47816
G1 X59.074 Y96.933 E.01956
G1 X132.19 Y170.049 E3.5058
G1 X132.767 Y170.049 E.01956
G1 X59.074 Y96.356 E3.53347
G1 X59.074 Y95.78 E.01953
G1 X133.344 Y170.049 E3.56111
G1 X133.92 Y170.049 E.01953
G1 X59.074 Y95.203 E3.58875
G1 X59.074 Y94.626 E.01956
G1 X134.497 Y170.049 E3.61642
G1 X135.073 Y170.049 E.01953
G1 X59.074 Y94.05 E3.64404
G1 X59.074 Y93.473 E.01956
G1 X135.65 Y170.049 E3.6717
G1 X136.227 Y170.049 E.01956
M73 P5 R187
M73 Q5 S188
G1 X59.074 Y92.896 E3.69937
G1 X59.074 Y92.32 E.01953
M73 P5 R186
G1 X136.803 Y170.049 E3.72699
G1 X137.38 Y170.049 E.01956
M73 Q5 S187
G1 X59.074 Y91.743 E3.75466
G1 X59.074 Y91.167 E.01953
G1 X137.957 Y170.049 E3.7823
G1 X138.533 Y170.049 E.01953
G1 X59.074 Y90.59 E3.80994
G1 X59.074 Y90.013 E.01956
G1 X139.11 Y170.049 E3.83761
G1 X139.687 Y170.049 E.01956
G1 X59.074 Y89.437 E3.86525
G1 X59.074 Y88.86 E.01956
G1 X140.263 Y170.049 E3.89289
G1 X140.84 Y170.049 E.01956
G1 X59.074 Y88.283 E3.92056
G1 X59.074 Y87.707 E.01953
G1 X141.417 Y170.049 E3.9482
G1 X141.993 Y170.049 E.01953
G1 X59.074 Y87.13 E3.97584
G1 X59.074 Y86.553 E.01956
G1 X142.57 Y170.049 E4.00351
G1 X143.147 Y170.049 E.01956
M73 P5 R185
M73 Q5 S186
G1 X59.074 Y85.977 E4.03115
G1 X59.074 Y85.4 E.01956
G1 X143.723 Y170.049 E4.05879
G1 X144.3 Y170.049 E.01956
G1 X59.074 Y84.823 E4.08646
G1 X59.074 Y84.247 E.01953
G1 X144.876 Y170.049 E4.11408
G1 X145.453 Y170.049 E.01956
G1 X59.074 Y83.67 E4.14174
G1 X59.074 Y83.093 E.01956
G1 X146.03 Y170.049 E4.16941
G1 X146.606 Y170.049 E.01953
G1 X59.074 Y82.517 E4.19703
G1 X59.074 Y81.94 E.01956
G1 X147.183 Y170.049 E4.2247
G1 X147.76 Y170.049 E.01956
M73 P6 R185
M73 Q6 S186
G1 X59.074 Y81.364 E4.25234
G1 X59.074 Y80.787 E.01956
G1 X148.336 Y170.049 E4.27998
G1 X148.913 Y170.049 E.01956
M73 P6 R184
M73 Q6 S185
G1 X59.074 Y80.21 E4.30765
G1 X59.074 Y79.634 E.01953
G1 X149.49 Y170.049 E4.33529
G1 X150.066 Y170.049 E.01953
G1 X59.074 Y79.057 E4.36293
G1 X59.074 Y78.48 E.01956
G1 X150.643 Y170.049 E4.3906
G1 X151.22 Y170.049 E.01956
G1 X59.074 Y77.904 E4.41824
G1 X59.074 Y77.327 E.01956
G1 X151.796 Y170.049 E4.44588
G1 X152.373 Y170.049 E.01956
G1 X59.074 Y76.75 E4.47355
G1 X59.074 Y76.174 E.01953
G1 X152.95 Y170.049 E4.50119
G1 X153.526 Y170.049 E.01953
G1 X59.074 Y75.597 E4.52883
G1 X59.074 Y75.02 E.01956
M73 P6 R183
M73 Q6 S184
