; generated by PrusaSlicer 2.7.1+win64 on 2026-03-06 at 20:53:01 UTC

; 

; external perimeters extrusion width = 0.42mm
; perimeters extrusion width = 0.45mm
; infill extrusion width = 0.45mm
; solid infill extrusion width = 0.45mm
; top infill extrusion width = 0.42mm
; support material extrusion width = 0.37mm
; first layer extrusion width = 0.45mm

M73 P0 R267
M73 Q0 S268
;TYPE:Custom
M115 U3.7.1 ; tell printer latest fw version
G90 ; use absolute coordinates
M83 ; extruder relative mode
M104 S215 ; set extruder temp
M140 S60 ; set bed temp
M190 S60 ; wait for bed temp
M109 S215 ; wait for extruder temp
G28 W ; home all without mesh bed level
G80 ; mesh bed leveling
G1 Y-3.0 F1000.0 ; go outside print area
G92 E0.0
G1 X60.0 E9.0 F1000.0 ; intro line
G1 X100.0 E12.5 F1000.0 ; intro line
G92 E0.0
M221 S95
G21 ; set units to millimeters
G90 ; use absolute coordinates
M83 ; use relative distances for extrusion
M900 K30 ; Filament gcode
M107
;LAYER_CHANGE
;Z:0.2
;HEIGHT:0.2
;BEFORE_LAYER_CHANGE
G92 E0.0
;0.2


G1 E-.8 F2100
M73 Q0 S267
G1 Z.2 F7200
;AFTER_LAYER_CHANGE
;0.2
G1 X223.961 Y176.08
G1 Z.2
G1 E.8 F2100
M204 S1000
;TYPE:Perimeter
;WIDTH:0.449999
G1 F1200
G1 X31.067 Y176.08 E6.52922
G1 X30.168 Y175.962 E.03069
G1 X29.396 Y175.646 E.02824
G1 X28.679 Y175.093 E.03065
G1 X28.175 Y174.427 E.02827
G1 X27.857 Y173.651 E.02839
G1 X27.739 Y172.751 E.03072
G1 X27.739 Y69.181 E3.50572
G1 X27.823 Y68.42 E.02592
M73 P0 R266
G1 X28.05 Y67.748 E.02401
G1 X28.418 Y67.143 E.02397
G1 X28.908 Y66.631 E.02399
G1 X29.498 Y66.237 E.02401
G1 X30.212 Y65.96 E.02592
G1 X149.253 Y34.104 E4.17117
G1 X149.712 Y34.002 E.01592
G1 X150.389 Y33.92 E.02308
G1 X180.851 Y33.92 E1.0311
G1 X181.317 Y33.941 E.01579
G1 X181.988 Y34.036 E.02294
G1 X223.961 Y45.19 E1.47004
G1 X223.961 Y82.697 E1.26957
G1 X223.961 Y176.02 E3.15887
G1 X224.368 Y176.487 F7200
G1 F1200
G1 X31.041 Y176.487 E6.54388
G1 X30.063 Y176.359 E.03339
G1 X29.191 Y176.002 E.03189
G1 X28.387 Y175.382 E.03437
G1 X27.818 Y174.631 E.03189
G1 X27.46 Y173.757 E.03197
G1 X27.332 Y172.778 E.03342
G1 X27.332 Y69.159 E3.50737
G1 X27.423 Y68.331 E.0282
G1 X27.679 Y67.575 E.02702
G1 X28.093 Y66.893 E.02701
G1 X28.645 Y66.317 E.027
G1 X29.309 Y65.874 E.02702
G1 X30.085 Y65.572 E.02819
G1 X149.148 Y33.71 E4.17195
G1 X149.824 Y33.569 E.02337
G1 X150.38 Y33.513 E.01892
G1 X180.851 Y33.513 E1.03141
G1 X181.536 Y33.551 E.02322
G1 X182.084 Y33.64 E.01879
G1 X224.368 Y44.877 E1.48094
G1 X224.368 Y82.697 E1.28016
M73 Q0 S266
G1 X224.368 Y176.427 E3.17264
G1 X224.775 Y176.894 F7200
;TYPE:External perimeter
G1 F1200
G1 X31.015 Y176.894 E6.55854
G1 X29.957 Y176.756 E.03612
M73 P0 R265
G1 X28.985 Y176.358 E.03555
G1 X28.096 Y175.672 E.03801
G1 X27.461 Y174.834 E.03559
G1 X27.063 Y173.862 E.03555
G1 X26.925 Y172.804 E.03612
G1 X26.925 Y69.137 E3.509
G1 X27.023 Y68.242 E.03048
G1 X27.308 Y67.402 E.03002
G1 X27.769 Y66.644 E.03003
G1 X28.382 Y66.003 E.03002
G1 X29.12 Y65.51 E.03004
G1 X29.958 Y65.185 E.03042
G1 X149.043 Y33.317 E4.17272
G1 X149.754 Y33.168 E.02459
G1 X150.371 Y33.106 E.02099
G1 X180.851 Y33.106 E1.03171
G1 X181.571 Y33.145 E.02441
G1 X182.18 Y33.244 E.02088
G1 X224.775 Y44.564 E1.49183
G1 X224.775 Y82.697 E1.29075
G1 X224.775 Y176.834 E3.18642
;WIPE_START
G1 F5760
G1 X224.775 Y176.894 E-.02078
G1 X222.525 Y176.894 E-.77922
;WIPE_END
G1 Z.8 F7200
G1 X223.839 Y46.112
G1 Z.2
G1 E.8 F2100
;TYPE:Solid infill
;WIDTH:0.450207
G1 F1200
G1 X222.969 Y45.243 E.04164
G1 X222.185 Y45.034 E.02748
G1 X223.656 Y46.505 E.07045
G1 X223.656 Y47.081 E.01951
G1 X221.4 Y44.826 E.10802
G1 X220.616 Y44.617 E.02748
G1 X223.656 Y47.657 E.1456
G1 X223.656 Y48.233 E.01951
G1 X219.831 Y44.409 E.18317
G1 X219.047 Y44.2 E.02748
G1 X223.656 Y48.809 E.22074
G1 X223.656 Y49.385 E.01951
G1 X218.262 Y43.992 E.25832
G1 X217.478 Y43.783 E.02748
G1 X223.656 Y49.961 E.29589
G1 X223.656 Y50.537 E.01951
G1 X216.693 Y43.575 E.33346
G1 X215.909 Y43.366 E.02748
G1 X223.656 Y51.113 E.37103
G1 X223.656 Y51.689 E.01951
G1 X215.124 Y43.158 E.40861
G1 X214.34 Y42.949 E.02748
G1 X223.656 Y52.265 E.44618
G1 X223.656 Y52.841 E.01951
G1 X213.555 Y42.741 E.48375
G1 X212.771 Y42.532 E.02748
G1 X223.656 Y53.417 E.52132
G1 X223.656 Y53.993 E.01951
G1 X211.986 Y42.324 E.5589
G1 X211.202 Y42.115 E.02748
G1 X223.656 Y54.569 E.59647
G1 X223.656 Y55.145 E.01951
G1 X210.418 Y41.907 E.63402
G1 X209.633 Y41.698 E.02751
G1 X223.656 Y55.721 E.67162
G1 X223.656 Y56.297 E.01951
G1 X208.849 Y41.49 E.70916
G1 X208.064 Y41.281 E.02751
G1 X223.656 Y56.873 E.74676
G1 X223.656 Y57.449 E.01951
G1 X207.28 Y41.073 E.78431
G1 X206.495 Y40.864 E.02751
G1 X223.656 Y58.025 E.82191
G1 X223.656 Y58.601 E.01951
G1 X205.711 Y40.656 E.85945
G1 X204.926 Y40.448 E.0275
G1 X223.656 Y59.177 E.89703
G1 X223.656 Y59.753 E.01951
G1 X204.142 Y40.239 E.9346
G1 X203.357 Y40.031 E.0275
G1 X223.656 Y60.329 E.97217
G1 X223.656 Y60.905 E.01951
M73 Q0 S265
G1 X202.573 Y39.822 E1.00975
G1 X201.788 Y39.614 E.0275
G1 X223.656 Y61.481 E1.04732
G1 X223.656 Y62.057 E.01951
G1 X201.004 Y39.405 E1.08489
G1 X200.219 Y39.197 E.0275
G1 X223.656 Y62.633 E1.12246
G1 X223.656 Y63.209 E.01951
G1 X199.435 Y38.988 E1.16004
G1 X198.65 Y38.78 E.0275
G1 X223.656 Y63.785 E1.19761
G1 X223.656 Y64.361 E.01951
G1 X197.866 Y38.571 E1.23518
G1 X197.082 Y38.363 E.02747
G1 X223.656 Y64.937 E1.27273
G1 X223.656 Y65.513 E.01951
G1 X196.297 Y38.154 E1.31033
G1 X195.513 Y37.946 E.02747
M73 P0 R264
G1 X223.656 Y66.089 E1.34788
G1 X223.656 Y66.665 E.01951
G1 X194.728 Y37.737 E1.38547
G1 X193.944 Y37.529 E.02747
G1 X223.656 Y67.241 E1.42302
G1 X223.656 Y67.817 E.01951
G1 X193.159 Y37.32 E1.46062
G1 X192.375 Y37.112 E.02747
G1 X223.656 Y68.393 E1.49817
G1 X223.656 Y68.969 E.01951
G1 X191.59 Y36.903 E1.53576
G1 X190.806 Y36.695 E.02747
G1 X223.656 Y69.545 E1.57331
G1 X223.656 Y70.121 E.01951
G1 X190.021 Y36.486 E1.61091
G1 X189.237 Y36.278 E.02747
G1 X223.656 Y70.697 E1.64846
G1 X223.656 Y71.273 E.01951
M73 P1 R264
M73 Q1 S265
G1 X188.452 Y36.069 E1.68605
G1 X187.668 Y35.861 E.02747
G1 X223.656 Y71.849 E1.7236
G1 X223.656 Y72.425 E.01951
G1 X186.883 Y35.652 E1.7612
G1 X186.099 Y35.444 E.02747
G1 X223.656 Y73.001 E1.79875
G1 X223.656 Y73.577 E.01951
G1 X185.314 Y35.235 E1.83635
G1 X184.53 Y35.027 E.02747
G1 X223.656 Y74.153 E1.87389
G1 X223.656 Y74.729 E.01951
G1 X183.745 Y34.819 E1.91147
G1 X182.961 Y34.61 E.02748
G1 X223.656 Y75.305 E1.94904
G1 X223.656 Y75.881 E.01951
G1 X182.177 Y34.402 E1.98659
G1 X181.666 Y34.277 E.01782
M73 Q1 S264
G1 X181.458 Y34.259 E.00707
G1 X223.656 Y76.457 E2.02102
G1 X223.656 Y77.033 E.01951
G1 X180.849 Y34.226 E2.05019
G1 X180.273 Y34.226 E.01951
G1 X223.656 Y77.609 E2.07778
G1 X223.656 Y78.185 E.01951
G1 X179.697 Y34.226 E2.10536
G1 X179.121 Y34.226 E.01951
G1 X223.656 Y78.761 E2.13295
G1 X223.656 Y79.337 E.01951
M73 P1 R263
G1 X178.545 Y34.226 E2.16054
G1 X177.969 Y34.226 E.01951
G1 X223.656 Y79.913 E2.18813
G1 X223.656 Y80.488 E.01947
G1 X177.393 Y34.226 E2.21569
G1 X176.817 Y34.226 E.01951
G1 X223.656 Y81.064 E2.24328
G1 X223.656 Y81.64 E.01951
G1 X176.241 Y34.226 E2.27086
G1 X175.665 Y34.226 E.01951
G1 X223.656 Y82.216 E2.29845
G1 X223.656 Y82.792 E.01951
G1 X175.089 Y34.226 E2.32604
G1 X174.513 Y34.226 E.01951
G1 X223.656 Y83.368 E2.35362
G1 X223.656 Y83.944 E.01951
G1 X173.937 Y34.226 E2.38121
G1 X173.361 Y34.226 E.01951
G1 X223.656 Y84.52 E2.4088
G1 X223.656 Y85.096 E.01951
G1 X172.785 Y34.226 E2.43638
G1 X172.209 Y34.226 E.01951
G1 X223.656 Y85.672 E2.46397
G1 X223.656 Y86.248 E.01951
G1 X171.633 Y34.226 E2.49156
G1 X171.057 Y34.226 E.01951
M73 Q1 S263
G1 X223.656 Y86.824 E2.51914
G1 X223.656 Y87.4 E.01951
G1 X170.481 Y34.226 E2.54673
G1 X169.905 Y34.226 E.01951
G1 X223.656 Y87.976 E2.57432
G1 X223.656 Y88.552 E.01951
G1 X169.329 Y34.226 E2.6019
G1 X168.753 Y34.226 E.01951
M73 P1 R262
G1 X223.656 Y89.128 E2.62949
G1 X223.656 Y89.704 E.01951
G1 X168.177 Y34.226 E2.65708
G1 X167.601 Y34.226 E.01951
G1 X223.656 Y90.28 E2.68466
G1 X223.656 Y90.856 E.01951
G1 X167.025 Y34.226 E2.71225
G1 X166.449 Y34.226 E.01951
G1 X223.656 Y91.432 E2.73984
G1 X223.656 Y92.008 E.01951
G1 X165.873 Y34.226 E2.76743
G1 X165.297 Y34.226 E.01951
G1 X223.656 Y92.584 E2.79501
G1 X223.656 Y93.16 E.01951
G1 X164.721 Y34.226 E2.8226
G1 X164.145 Y34.226 E.01951
G1 X223.656 Y93.736 E2.85019
G1 X223.656 Y94.312 E.01951
G1 X163.569 Y34.226 E2.87777
G1 X162.993 Y34.226 E.01951
G1 X223.656 Y94.888 E2.90536
G1 X223.656 Y95.464 E.01951
M73 Q1 S262
G1 X162.417 Y34.226 E2.93295
G1 X161.841 Y34.226 E.01951
G1 X223.656 Y96.04 E2.96053
G1 X223.656 Y96.616 E.01951
G1 X161.265 Y34.226 E2.98812
G1 X160.689 Y34.226 E.01951
M73 P2 R261
M73 Q2 S262
G1 X223.656 Y97.192 E3.01571
G1 X223.656 Y97.768 E.01951
G1 X160.113 Y34.226 E3.04329
G1 X159.537 Y34.226 E.01951
G1 X223.656 Y98.344 E3.07088
G1 X223.656 Y98.92 E.01951
G1 X158.961 Y34.226 E3.09847
G1 X158.385 Y34.226 E.01951
G1 X223.656 Y99.496 E3.12605
G1 X223.656 Y100.072 E.01951
G1 X157.809 Y34.226 E3.15364
G1 X157.233 Y34.226 E.01951
G1 X223.656 Y100.648 E3.18123
G1 X223.656 Y101.224 E.01951
G1 X156.657 Y34.226 E3.20881
G1 X156.081 Y34.226 E.01951
G1 X223.656 Y101.8 E3.2364
G1 X223.656 Y102.376 E.01951
G1 X155.505 Y34.226 E3.26399
G1 X154.929 Y34.226 E.01951
M73 Q2 S261
G1 X223.656 Y102.952 E3.29158
G1 X223.656 Y103.528 E.01951
G1 X154.353 Y34.226 E3.31916
G1 X153.777 Y34.226 E.01951
G1 X223.656 Y104.104 E3.34675
G1 X223.656 Y104.68 E.01951
M73 P2 R260
G1 X153.201 Y34.226 E3.37434
G1 X152.625 Y34.226 E.01951
G1 X223.656 Y105.256 E3.40192
G1 X223.656 Y105.832 E.01951
G1 X152.049 Y34.226 E3.42951
G1 X151.473 Y34.226 E.01951
G1 X223.656 Y106.408 E3.4571
G1 X223.656 Y106.984 E.01951
G1 X150.897 Y34.226 E3.48468
G1 X150.324 Y34.229 E.01941
G1 X223.656 Y107.56 E3.51213
G1 X223.656 Y108.136 E.01951
G1 X149.814 Y34.294 E3.53658
G1 X149.34 Y34.396 E.01642
G1 X223.656 Y108.712 E3.55928
G1 X223.656 Y109.288 E.01951
G1 X148.886 Y34.518 E3.58102
G1 X148.431 Y34.64 E.01595
M73 Q2 S260
G1 X223.656 Y109.864 E3.60279
G1 X223.656 Y110.44 E.01951
G1 X147.977 Y34.761 E3.62456
G1 X147.522 Y34.883 E.01595
M73 P2 R259
G1 X223.656 Y111.016 E3.64632
G1 X223.656 Y111.592 E.01951
G1 X147.068 Y35.004 E3.66809
G1 X146.614 Y35.126 E.01592
G1 X223.656 Y112.168 E3.68984
G1 X223.656 Y112.744 E.01951
G1 X146.159 Y35.248 E3.7116
G1 X145.705 Y35.369 E.01591
G1 X223.656 Y113.32 E3.73337
G1 X223.656 Y113.896 E.01951
G1 X145.25 Y35.491 E3.75514
G1 X144.796 Y35.612 E.01591
G1 X223.656 Y114.472 E3.77691
G1 X223.656 Y115.048 E.01951
G1 X144.342 Y35.734 E3.79865
G1 X143.887 Y35.856 E.01595
M73 P3 R259
M73 Q3 S260
G1 X223.656 Y115.624 E3.82042
G1 X223.656 Y116.2 E.01951
M73 Q3 S259
G1 X143.433 Y35.977 E3.84219
G1 X142.978 Y36.099 E.01595
G1 X223.656 Y116.776 E3.86395
G1 X223.656 Y117.352 E.01951
M73 P3 R258
G1 X142.524 Y36.22 E3.88572
G1 X142.07 Y36.342 E.01592
G1 X223.656 Y117.928 E3.90747
G1 X223.656 Y118.504 E.01951
G1 X141.615 Y36.464 E3.92923
G1 X141.161 Y36.585 E.01591
G1 X223.656 Y119.08 E3.951
G1 X223.656 Y119.656 E.01951
G1 X140.706 Y36.707 E3.97277
G1 X140.252 Y36.828 E.01591
G1 X223.656 Y120.232 E3.99454
G1 X223.656 Y120.808 E.01951
G1 X139.798 Y36.95 E4.01628
G1 X139.343 Y37.072 E.01595
G1 X223.656 Y121.384 E4.03805
G1 X223.656 Y121.96 E.01951
M73 Q3 S258
G1 X138.889 Y37.193 E4.05982
G1 X138.434 Y37.315 E.01595
G1 X223.656 Y122.536 E4.08158
G1 X223.656 Y123.112 E.01951
M73 P3 R257
G1 X137.98 Y37.436 E4.10335
G1 X137.526 Y37.558 E.01592
G1 X223.656 Y123.688 E4.1251
G1 X223.656 Y124.264 E.01951
G1 X137.071 Y37.68 E4.14686
G1 X136.617 Y37.801 E.01591
G1 X223.656 Y124.84 E4.16863
G1 X223.656 Y125.416 E.01951
G1 X136.163 Y37.923 E4.19037
G1 X135.708 Y38.044 E.01594
G1 X223.656 Y125.992 E4.21217
G1 X223.656 Y126.568 E.01951
G1 X135.254 Y38.166 E4.23391
G1 X134.799 Y38.288 E.01595
G1 X223.656 Y127.144 E4.25568
G1 X223.656 Y127.72 E.01951
M73 Q3 S257
G1 X134.345 Y38.409 E4.27745
G1 X133.891 Y38.531 E.01592
G1 X223.656 Y128.296 E4.29919
G1 X223.656 Y128.872 E.01951
M73 P3 R256
G1 X133.436 Y38.652 E4.32098
G1 X132.982 Y38.774 E.01592
G1 X223.656 Y129.448 E4.34273
G1 X223.656 Y130.024 E.01951
G1 X132.527 Y38.896 E4.36449
G1 X132.073 Y39.017 E.01591
M73 P4 R256
G1 X223.656 Y130.6 E4.38626
G1 X223.656 Y131.176 E.01951
M73 Q4 S257
G1 X131.619 Y39.139 E4.408
G1 X131.164 Y39.26 E.01594
G1 X223.656 Y131.752 E4.4298
G1 X223.656 Y132.328 E.01951
G1 X130.71 Y39.382 E4.45154
G1 X130.255 Y39.504 E.01595
M73 Q4 S256
G1 X223.656 Y132.904 E4.47331
G1 X223.656 Y133.48 E.01951
G1 X129.801 Y39.625 E4.49508
G1 X129.347 Y39.747 E.01592
M73 P4 R255
G1 X223.656 Y134.056 E4.51682
G1 X223.656 Y134.632 E.01951
G1 X128.892 Y39.868 E4.53861
G1 X128.438 Y39.99 E.01592
G1 X223.656 Y135.208 E4.56035
G1 X223.656 Y135.784 E.01951
G1 X127.983 Y40.112 E4.58212
G1 X127.529 Y40.233 E.01591
G1 X223.656 Y136.36 E4.60389
G1 X223.656 Y136.936 E.01951
G1 X127.075 Y40.355 E4.62563
G1 X126.62 Y40.476 E.01594
G1 X223.656 Y137.512 E4.64743
G1 X223.656 Y138.088 E.01951
M73 Q4 S255
G1 X126.166 Y40.598 E4.66917
G1 X125.711 Y40.719 E.01594
G1 X223.656 Y138.664 E4.69096
G1 X223.656 Y139.24 E.01951
M73 P4 R254
G1 X125.257 Y40.841 E4.7127
G1 X124.803 Y40.963 E.01592
G1 X223.656 Y139.816 E4.73445
G1 X223.656 Y140.392 E.01951
G1 X124.348 Y41.084 E4.75624
G1 X123.894 Y41.206 E.01592
G1 X223.656 Y140.968 E4.77798
G1 X223.656 Y141.544 E.01951
G1 X123.439 Y41.327 E4.79978
G1 X122.985 Y41.449 E.01592
G1 X223.656 Y142.12 E4.82152
G1 X223.656 Y142.696 E.01951
M73 Q4 S254
G1 X122.531 Y41.571 E4.84326
G1 X122.076 Y41.692 E.01594
G1 X223.656 Y143.271 E4.86503
G1 X223.656 Y143.847 E.01951
M73 P4 R253
G1 X121.622 Y41.814 E4.88677
G1 X121.168 Y41.935 E.01591
M73 P5 R253
M73 Q5 S254
G1 X223.656 Y144.423 E4.90854
G1 X223.656 Y144.999 E.01951
G1 X120.713 Y42.057 E4.93031
G1 X120.259 Y42.179 E.01592
G1 X223.656 Y145.575 E4.95205
G1 X223.656 Y146.151 E.01951
G1 X119.804 Y42.3 E4.97385
G1 X119.35 Y42.422 E.01592
G1 X223.656 Y146.727 E4.99559
G1 X223.656 Y147.303 E.01951
G1 X118.896 Y42.543 E5.01736
G1 X118.441 Y42.665 E.01595
M73 Q5 S253
G1 X223.656 Y147.879 E5.03913
G1 X223.656 Y148.455 E.01951
G1 X117.987 Y42.787 E5.06087
G1 X117.532 Y42.908 E.01594
M73 P5 R252
G1 X223.656 Y149.031 E5.08266
G1 X223.656 Y149.607 E.01951
G1 X117.078 Y43.03 E5.1044
G1 X116.624 Y43.151 E.01591
G1 X223.656 Y150.183 E5.12617
G1 X223.656 Y150.759 E.01951
G1 X116.169 Y43.273 E5.14794
G1 X115.715 Y43.395 E.01592
G1 X223.656 Y151.335 E5.16968
G1 X223.656 Y151.911 E.01951
M73 Q5 S252
G1 X115.26 Y43.516 E5.19148
G1 X114.806 Y43.638 E.01592
G1 X223.656 Y152.487 E5.21322
G1 X223.656 Y153.063 E.01951
M73 P5 R251
G1 X114.352 Y43.759 E5.23499
G1 X113.897 Y43.881 E.01595
G1 X223.656 Y153.639 E5.25675
G1 X223.656 Y154.215 E.01951
G1 X113.443 Y44.003 E5.2785
G1 X112.988 Y44.124 E.01594
G1 X223.656 Y154.791 E5.30029
G1 X223.656 Y155.367 E.01951
G1 X112.534 Y44.246 E5.32203
G1 X112.08 Y44.367 E.01591
G1 X223.656 Y155.943 E5.3438
G1 X223.656 Y156.519 E.01951
M73 P6 R251
M73 Q6 S251
G1 X111.625 Y44.489 E5.36557
G1 X111.171 Y44.611 E.01592
G1 X223.656 Y157.095 E5.38731
G1 X223.656 Y157.671 E.01951
M73 P6 R250
G1 X110.716 Y44.732 E5.40911
G1 X110.262 Y44.854 E.01592
G1 X223.656 Y158.247 E5.43085
G1 X223.656 Y158.823 E.01951
G1 X109.808 Y44.975 E5.45262
G1 X109.353 Y45.097 E.01595
G1 X223.656 Y159.399 E5.47438
G1 X223.656 Y159.975 E.01951
G1 X108.899 Y45.219 E5.49613
G1 X108.445 Y45.34 E.01591
G1 X223.656 Y160.551 E5.5179
G1 X223.656 Y161.127 E.01951
M73 Q6 S250
G1 X107.99 Y45.462 E5.53966
G1 X107.536 Y45.583 E.01591
M73 P6 R249
G1 X223.656 Y161.703 E5.56143
G1 X223.656 Y162.279 E.01951
G1 X107.081 Y45.705 E5.5832
G1 X106.627 Y45.827 E.01592
G1 X223.656 Y162.855 E5.60494
G1 X223.656 Y163.431 E.01951
G1 X106.173 Y45.948 E5.62671
G1 X105.718 Y46.07 E.01595
G1 X223.656 Y164.007 E5.64848
G1 X223.656 Y164.583 E.01951
G1 X105.264 Y46.191 E5.67025
G1 X104.809 Y46.313 E.01595
M73 Q6 S249
G1 X223.656 Y165.159 E5.69201
G1 X223.656 Y165.735 E.01951
G1 X104.355 Y46.435 E5.71376
G1 X103.901 Y46.556 E.01591
M73 P6 R248
G1 X223.656 Y166.311 E5.73553
G1 X223.656 Y166.887 E.01951
G1 X103.446 Y46.678 E5.75729
